svgs/thin/drum-steelpan.svg

<svg xmlns="http://www.w3.org/2000/svg" viewBox="0 0 576 512"><!-- Font Awesome Pro 6.0.0-alpha2 by @fontawesome - https://fontawesome.com License - https://fontawesome.com/license (Commercial License) --><path d="M288 32C128.941 32 0 82.145 0 144V368C0 429.855 128.941 480 288 480S576 429.855 576 368V144C576 82.145 447.059 32 288 32ZM560 144C560 178.357 495.975 215.641 395.41 231.773C378.145 206.189 368 176.189 368 144S378.145 81.811 395.41 56.227C495.975 72.359 560 109.643 560 144ZM223.938 142.855C238.488 163.342 261.969 176 288 176S337.512 163.342 352.062 142.855C352.061 143.24 352 143.613 352 144C352 176.811 361.492 207.574 377.916 234.275C350.195 237.893 320.133 240 288 240S225.805 237.893 198.084 234.275C214.508 207.574 224 176.811 224 144C224 143.613 223.939 143.24 223.938 142.855ZM373.346 53.072L346.375 120.469C336.781 144.469 313.875 160 288 160S239.219 144.469 229.625 120.469L202.654 53.072C199.709 53.434 254.281 48 288 48S376.291 53.434 373.346 53.072ZM180.59 56.227C197.855 81.811 208 111.811 208 144S197.855 206.189 180.59 231.773C80.025 215.641 16 178.357 16 144S80.025 72.359 180.59 56.227ZM560 368C560 413.406 448.293 464 288 464S16 413.406 16 368V260.549C54.998 304.432 161.898 336 288 336S521.002 304.432 560 260.549V368ZM560 224C560 269.406 448.293 320 288 320S16 269.406 16 224V180.549C54.998 224.432 161.898 256 288 256S521.002 224.432 560 180.549V224Z"/></svg>

<svg xmlns="http://www.w3.org/2000/svg" viewBox="0 0 576 512"><!--! Font Awesome Pro 6.0.0-alpha3 by @fontawesome - https://fontawesome.com License - https://fontawesome.com/license (Commercial License) --><path d="M288 32C128.9 32 0 82.14 0 144v224c0 61.86 128.9 112 288 112s288-50.14 288-112v-224C576 82.14 447.1 32 288 32zM560 144c0 34.36-64.03 71.64-164.6 87.77C378.1 206.2 368 176.2 368 144s10.14-62.19 27.41-87.77C495.1 72.36 560 109.6 560 144zM223.9 142.9C238.5 163.3 261.1 176 288 176s49.51-12.66 64.06-33.14C352.1 143.2 352 143.6 352 144c0 32.81 9.492 63.57 25.92 90.28C350.2 237.9 320.1 240 288 240S225.8 237.9 198.1 234.3C214.5 207.6 224 176.8 224 144C224 143.6 223.9 143.2 223.9 142.9zM373.3 53.07l-26.97 67.4C336.8 144.5 313.9 160 288 160S239.2 144.5 229.6 120.5L202.7 53.07C199.7 53.43 254.3 48 288 48S376.3 53.43 373.3 53.07zM180.6 56.23C197.9 81.81 208 111.8 208 144S197.9 206.2 180.6 231.8C80.03 215.6 16 178.4 16 144S80.03 72.36 180.6 56.23zM560 368c0 45.41-111.7 96-272 96s-272-50.59-272-96V260.5C54.1 304.4 161.9 336 288 336s233-31.57 272-75.45V368zM560 224c0 45.41-111.7 96-272 96S16 269.4 16 224V180.5C54.1 224.4 161.9 256 288 256s233-31.57 272-75.45V224z"/></svg>
